X:158
T: ET WASSEN TWE KUENIGESKINNER
N: E0084D
O: Europa, Mitteleuropa, Deutschland, Paderborn
R: erzaehlendes Volks - Lied, Sage, Liebe, Leid, Tod
M: 4/4
L: 1/8
K: F
C2 | CAAAAGG2 | GFF2z2
C2 | CBBBBAcA | G4z2
C2 | c2cccBBB | A3ccB
AG | F2FFAGG2 | F4
G3B | AfcAcBGA | F4z2

@@@ Tune index: 3808
